X:150
T:Grannas flecker
R:sl\"angpolska
H:Se \"aven #14, #51, #150, #172
A:\"Osterg\"otland
B:Bagge 32
Z:id:hn-sp-150
M:3/4
L:1/16
K:Am
A2B2 cdcB A2B2 | cBcd e4 c4 | e2^g2 a2a2 fdfa |
abag efed cdcB | A2B2 cdcB A2B2 | cBcd e4 c4|
e2^g2 a2a2 fdfa | abag e8 :||: e2^g2 a2a2 fdfa |
abag e4 c4 | c2e2 g2g2 eceg | gagf d4 B4 |
cBcd e2c2 A2c2 | cB^GB B2A2 A4 :|

